resources/svg/move-file.svg

<svg xmlns="http://www.w3.org/2000/svg" fill="none" viewBox="0 0 14 14"><path fill="currentColor" fill-rule="evenodd" d="M3.38141 0.619931C4.52572 0.541255 5.63176 0.5 7 0.5C7.45158 0.5 7.87486 0.504493 8.28061 0.51336C8.78418 0.524364 9.27766 0.691426 9.68259 1.00394C10.8786 1.92705 11.6113 2.7069 12.515 3.93803C12.8076 4.33676 12.9664 4.81496 12.9787 5.30429C12.9928 5.86338 13 6.42893 13 7C13 8.41 12.9562 9.78642 12.8728 11.1152C12.7965 12.3305 11.8315 13.2967 10.6186 13.3801C9.47428 13.4587 8.36824 13.5 7 13.5C5.63176 13.5 4.52572 13.4587 3.38141 13.3801C2.16848 13.2967 1.20348 12.3305 1.12721 11.1152C1.04381 9.78642 1 8.41 1 7C1 5.59 1.04381 4.21358 1.1272 2.88484C1.20348 1.66952 2.16848 0.703324 3.38141 0.619931ZM5.54695 8.16487L4.67851 7.29643C4.54186 7.15978 4.33869 7.11411 4.1567 7.17914C3.97472 7.24417 3.8465 7.40826 3.8274 7.60057C3.72035 8.67846 3.72006 9.28678 3.82763 10.3221C3.85208 10.5573 4.03802 10.7432 4.27328 10.7677C5.30854 10.8753 5.91686 10.875 6.99476 10.7679C7.18707 10.7488 7.35115 10.6206 7.41619 10.4386C7.48122 10.2566 7.43555 10.0535 7.2989 9.91682L6.43083 9.04875L8.22387 7.25571C8.46795 7.01163 8.46795 6.61591 8.22387 6.37183C7.9798 6.12775 7.58407 6.12775 7.33999 6.37183L5.54695 8.16487Z" clip-rule="evenodd"></path></svg>

<svg xmlns="http://www.w3.org/2000/svg" fill="none" viewBox="0 0 14 14"><path fill="currentColor" fill-rule="evenodd" d="M3.381.62A49.93 49.93 0 0 1 7 .5c.452 0 .875.004 1.28.013.504.011.998.178 1.403.49 1.196.924 1.928 1.704 2.832 2.935.293.399.451.877.464 1.366a67.276 67.276 0 0 1-.106 5.811 2.423 2.423 0 0 1-2.254 2.265c-1.145.079-2.25.12-3.619.12-1.368 0-2.474-.041-3.619-.12a2.423 2.423 0 0 1-2.254-2.265A65.804 65.804 0 0 1 1 7c0-1.41.044-2.786.127-4.115A2.423 2.423 0 0 1 3.381.62Zm2.166 7.545-.868-.869a.5.5 0 0 0-.852.305c-.107 1.077-.107 1.686 0 2.721a.5.5 0 0 0 .446.446c1.036.107 1.644.107 2.722 0a.5.5 0 0 0 .304-.851l-.868-.868 1.793-1.793a.625.625 0 1 0-.884-.884L5.547 8.165Z" clip-rule="evenodd"/></svg>
